world_stage/static/flags/rect/chn.svg

<svg height="1333.3333" viewBox="0 0 2000 1333.3333" width="2000" xmlns="http://www.w3.org/2000/svg"><path d="m0 0h1500v1000h-1500z" fill="#de2910" transform="matrix(1.3333333 0 0 -1.3333333 0 1333.3333)"/><g fill="#ffde00"><path d="m0 0 88.167 64.058h-108.98l-33.678 103.647-33.677-103.647h-108.981l88.168-64.058-33.678-103.647 88.168 64.057 88.168-64.057z" transform="matrix(1.3333333 0 0 -1.3333333 405.9876 356.94013)"/><path d="m0 0 18.69-31.15 3.189 36.187 35.402 8.149-33.431 14.215 3.189 36.187-23.85-27.401-33.43 14.215 18.69-31.15-23.85-27.401z" transform="matrix(1.3333333 0 0 -1.3333333 656.70187 156.76693)"/><path d="m0 0 5.138-35.962 16.981 32.113 35.79-6.226-25.295 26.074 16.982 32.113-32.615-15.999-25.294 26.075 5.138-35.962-32.615-15.999z" transform="matrix(1.3333333 0 0 -1.3333333 781.72267 284.3972)"/><path d="m0 0 28.605 22.392-36.304-1.302-12.457 34.124-9.98-34.929-36.303-1.302 30.135-20.285-9.979-34.93 28.604 22.393 30.137-20.286z" transform="matrix(1.3333333 0 0 -1.3333333 824.4844 473.66213)"/><path d="m0 0 1.686 36.288-22.694-28.367-33.991 12.817 19.966-30.348-22.693-28.367 35.033 9.61 19.965-30.348 1.686 36.288 35.033 9.61z" transform="matrix(1.3333333 0 0 -1.3333333 687.94013 586.00453)"/></g></svg>

<?xml version="1.0" encoding="UTF-8" standalone="no"?>
<!-- Created with Inkscape (http://www.inkscape.org/) -->

<svg
   version="1.1"
   id="svg1"
   width="2000"
   height="1333.3333"
   viewBox="0 0 2000 1333.3333"
   sodipodi:docname="cn.ai"
   xmlns:inkscape="http://www.inkscape.org/namespaces/inkscape"
   xmlns:sodipodi="http://sodipodi.sourceforge.net/DTD/sodipodi-0.dtd"
   xmlns="http://www.w3.org/2000/svg"
   xmlns:svg="http://www.w3.org/2000/svg">
  <defs
     id="defs1" />
  <sodipodi:namedview
     id="namedview1"
     pagecolor="#ffffff"
     bordercolor="#000000"
     borderopacity="0.25"
     inkscape:showpageshadow="2"
     inkscape:pageopacity="0.0"
     inkscape:pagecheckerboard="0"
     inkscape:deskcolor="#d1d1d1">
    <inkscape:page
       x="0"
       y="0"
       inkscape:label="1"
       id="page1"
       width="2000"
       height="1333.3333"
       margin="0"
       bleed="0" />
  </sodipodi:namedview>
  <g
     id="layer-MC0"
     inkscape:groupmode="layer"
     inkscape:label="Layer 1">
    <path
       id="path1"
       d="M 0,0 H 1500 V 1000 H 0 Z"
       style="fill:#de2910;fill-opacity:1;fill-rule:nonzero;stroke:none"
       transform="matrix(1.3333333,0,0,-1.3333333,0,1333.3333)" />
    <path
       id="path2"
       d="M 0,0 88.167,64.058 H -20.813 L -54.491,167.705 -88.168,64.058 H -197.149 L -108.981,0 l -33.678,-103.647 88.168,64.057 88.168,-64.057 z"
       style="fill:#ffde00;fill-opacity:1;fill-rule:nonzero;stroke:none"
       transform="matrix(1.3333333,0,0,-1.3333333,405.9876,356.94013)" />
    <path
       id="path3"
       d="m 0,0 18.69,-31.15 3.189,36.187 35.402,8.149 -33.431,14.215 3.189,36.187 -23.85,-27.401 -33.43,14.215 18.69,-31.15 -23.85,-27.401 z"
       style="fill:#ffde00;fill-opacity:1;fill-rule:nonzero;stroke:none"
       transform="matrix(1.3333333,0,0,-1.3333333,656.70187,156.76693)" />
    <path
       id="path4"
       d="M 0,0 5.138,-35.962 22.119,-3.849 57.909,-10.075 32.614,15.999 49.596,48.112 16.981,32.113 -8.313,58.188 -3.175,22.226 -35.79,6.227 Z"
       style="fill:#ffde00;fill-opacity:1;fill-rule:nonzero;stroke:none"
       transform="matrix(1.3333333,0,0,-1.3333333,781.72267,284.3972)" />
    <path
       id="path5"
       d="m 0,0 28.605,22.392 -36.304,-1.302 -12.457,34.124 -9.98,-34.929 -36.303,-1.302 30.135,-20.285 -9.979,-34.93 28.604,22.393 30.137,-20.286 z"
       style="fill:#ffde00;fill-opacity:1;fill-rule:nonzero;stroke:none"
       transform="matrix(1.3333333,0,0,-1.3333333,824.4844,473.66213)" />
    <path
       id="path6"
       d="M 0,0 1.686,36.288 -21.008,7.921 -54.999,20.738 -35.033,-9.61 l -22.693,-28.367 35.033,9.61 19.965,-30.348 1.686,36.288 35.033,9.61 z"
       style="fill:#ffde00;fill-opacity:1;fill-rule:nonzero;stroke:none"
       transform="matrix(1.3333333,0,0,-1.3333333,687.94013,586.00453)" />
  </g>
</svg>
